X: 20301
T: BURNS' FESTIVAL MARCH, 6th August, 1844.
C: Copyright.--John Turnbull.
%R: march
B: W. Hamilton "Universal Tune-Book" Vol. 2 Glasgow 1846 p.30 #1
S: http://s3-eu-west-1.amazonaws.com/itma.dl.printmaterial/book_pdfs/hamiltonvol2web.pdf
Z: 2016 John Chambers <jc:trillian.mit.edu>
M: C
L: 1/8
K: A
% - - - - - - - - - - - - - - - - - - - - - - - - -
|:\
A4 e4 | d2B>B B2c2 | d>df>f e>ed>d | cagf edcB |\
A4 e4 | d2B>B B2f2 | edcB A2G2 |[1 A2A>A A2E2 :|[2 A2A>A A2 |]
a2 |\
g2e>e aec'2 | bagf e2z2 | d2B>B cAf2 | edcB c2a2 |\
g2e>e aec'2 | bagf g2e2 | f>fB>B c>c^d>d | e2e>e edcB |
A4 e4 | d2B>B B2c2 | d>df>f e>ed>d | cagf edcB |\
A4 e4 | d2B>B B2fe | edcB A2G2 | A2A>A A2 ||
|: e2 |\
a2e>e aec'e | bed'e bege | a2e>e aec'e | bed'e bege |\
"_>"a4 bea2 | "_>"g4 acf2 | edcB A2G2 | A2A>A A2 :|
% - - - - - - - - - - - - - - - - - - - - - - - - -

%%sep 1 1 500
%%sep 1 1 500

